X:245
T:The Tippy Canoe Hornpipe
R:hp
C:Bruce Osborne - June 2004
Z:abc by bosborne@kos.net
M:4/4
L:1/8
K:D
FG|AFDF AFDF|BAFB AFDF|EDCD EGFE|DA,DE F2 FG|\
AFDF AFDF|BAFB AFDF|EDCD EGFE|DA,FE D2:|
|:FG|Adcd fdcd|BAFB A2 ef|gece Ae^de|Aea_a =a2 FG|\
Adcd fdcd|BAFB A2 ef|gece Ae^de|Agec d2:|
